packages/katcn/src/icons/svg/notifications.svg

<svg width="24" height="25" viewBox="0 0 24 25" fill="none" xmlns="http://www.w3.org/2000/svg">
<path fill-rule="evenodd" clip-rule="evenodd" d="M11.9572 4.31201C8.60319 4.31201 5.94814 6.90942 5.94814 9.98943V13.2798C5.94814 13.4784 5.88898 13.6725 5.77822 13.8374L4.15293 16.2567L4.14216 16.2724C3.95515 16.5397 3.97563 16.7837 4.07215 16.9592C4.17246 17.1417 4.39174 17.312 4.74497 17.312H19.271C19.5256 17.312 19.7723 17.1605 19.9101 16.9152C20.0416 16.6809 20.0218 16.4677 19.8983 16.3059C19.8918 16.2974 19.8854 16.2888 19.8792 16.2801L18.1523 13.8607C18.0313 13.6912 17.9663 13.4881 17.9663 13.2798V9.98943C17.9663 8.44382 17.2812 6.96643 16.2591 5.98512C15.0974 4.96918 13.6046 4.31201 11.9572 4.31201ZM3.94814 9.98943C3.94814 5.7146 7.59108 2.31201 11.9572 2.31201C14.1627 2.31201 16.1178 3.19748 17.595 4.49656C17.605 4.50533 17.6148 4.5143 17.6244 4.52347C19.0324 5.86483 19.9663 7.86478 19.9663 9.98943V12.9595L21.4988 15.1066C22.1763 16.0065 22.1042 17.0925 21.654 17.8943C21.2076 18.6893 20.3369 19.312 19.271 19.312H4.74497C2.58279 19.312 1.1941 17.01 2.49758 15.1343L3.94814 12.975V9.98943ZM8.00001 21.312C8.00001 20.7597 8.44773 20.312 9.00001 20.312H15C15.5523 20.312 16 20.7597 16 21.312C16 21.8643 15.5523 22.312 15 22.312H9.00001C8.44773 22.312 8.00001 21.8643 8.00001 21.312Z" fill="black"/>
</svg>

<svg xmlns="http://www.w3.org/2000/svg" fill="none" viewBox="0 0 24 25"><path fill="#000" fill-rule="evenodd" d="M11.957 4.312c-3.354 0-6.009 2.597-6.009 5.677v3.29a1 1 0 0 1-.17.558l-1.625 2.42-.01.015c-.188.268-.167.512-.07.687.1.183.319.353.672.353h14.526a.75.75 0 0 0 .64-.397c.13-.234.11-.447-.013-.61l-.019-.025-1.727-2.42a1 1 0 0 1-.186-.58V9.99a5.65 5.65 0 0 0-1.707-4.005c-1.162-1.016-2.654-1.673-4.302-1.673M3.948 9.989c0-4.274 3.643-7.677 8.01-7.677 2.205 0 4.16.885 5.637 2.185l.03.026a7.65 7.65 0 0 1 2.341 5.466v2.97l1.533 2.148c.677.9.605 1.986.155 2.787-.446.795-1.317 1.418-2.383 1.418H4.745c-2.162 0-3.55-2.302-2.247-4.178l1.45-2.159zM8 21.312a1 1 0 0 1 1-1h6a1 1 0 1 1 0 2H9a1 1 0 0 1-1-1" clip-rule="evenodd"/></svg>
